X:1
T:How Sweet in the Woodland.2voices. JJo.010
T:How Sweet in the Woodland.2voices. JJo.010
T:Henry Harrington
C:Henry Harrington
%%score 1 2
L:1/8
Q:1/4=120
M:3/4
K:G
V:1 treble 
V:2 treble 
V:1
|: D2 | G2 BABA | G2 G2 A2 | B2 dcdc | c2 B2"^minim in MS" Bc | d2 eded | cd e2 z c | B2 dccB | %8
 A4 :| B2 | A2 ABAB | c2 c2 dc | B2 Bded | d4 B2 | AG/A/ G2 c2 | BA/B/ A2 gd | c2 B2 d/c/B/A/ | %17
 G4 z d | e2 c2 z2 | B2 ABcd | g/e/d/c/ B2 A2 | A2 G4 |] %22
V:2
|: z2 | z6 | z2 z2 D2 | G2 BABA | A2 G2 GA | B2 cBcB | A>B c2 z G | G2 BAAG | D4 :| G2 | D2 D2 dG | %11
 A2 A2 BA | G2 GABA | A4 G2 | D2 B2 A2 | G2 D2 c2 | A2 G2 B/A/G/F/ | E4 z B | c2 A2 z2 | F2 EFGA | %20
 (3cBA G2 F2 | F2 G,4 |] %22

